public/logos/S7.svg

<?xml version="1.0" encoding="UTF-8"?>
<svg xmlns="http://www.w3.org/2000/svg" xmlns:xlink="http://www.w3.org/1999/xlink" width="176pt" height="56.74pt" viewBox="0 0 176 56.74" version="1.1">
<defs>
<clipPath id="clip1">
  <path d="M 0 0 L 57 0 L 57 56.738281 L 0 56.738281 Z M 0 0 "/>
</clipPath>
<clipPath id="clip2">
  <path d="M 7 13 L 48 13 L 48 45 L 7 45 Z M 7 13 "/>
</clipPath>
<clipPath id="clip3">
  <path d="M 46.933594 13.679688 L 33.128906 13.679688 L 31.164062 18.582031 L 35.742188 18.582031 C 38.820312 18.582031 39.414062 18.519531 40.1875 18.519531 C 39.070312 21.070312 32.34375 38.214844 32.34375 38.214844 L 38.035156 38.214844 C 38.035156 38.214844 46.554688 16.875 47.457031 14.636719 C 47.707031 14.136719 47.582031 13.679688 46.933594 13.679688 Z M 26.171875 13.679688 C 21.726562 13.679688 18.84375 13.925781 16.753906 14.699219 C 13.246094 16.066406 10.824219 18.929688 10.824219 22.691406 C 10.824219 25.828125 12.285156 28.097656 16.507812 30.707031 C 21.015625 33.441406 21.914062 34.34375 21.914062 35.988281 C 21.914062 37.789062 20.148438 39.84375 15.605469 39.84375 C 14.023438 39.84375 11.632812 39.621094 10.105469 39.25 L 9.378906 39.066406 C 8.972656 40.15625 8.050781 42.730469 7.769531 43.664062 L 8.492188 43.875 C 9.863281 44.316406 13.121094 44.65625 15.453125 44.65625 C 23.21875 44.65625 27.851562 39.964844 27.851562 35.054688 C 27.851562 32.035156 26.480469 29.742188 21.847656 26.851562 C 19.527344 25.425781 18.34375 24.496094 17.625 23.78125 C 17.039062 23.03125 16.976562 22.472656 16.976562 21.886719 C 16.976562 21.324219 17.101562 20.675781 17.472656 20.199219 C 17.871094 19.613281 18.609375 19.242188 19.601562 18.933594 C 20.625 18.59375 22.519531 18.585938 25.46875 18.585938 L 28.21875 18.585938 L 30.179688 13.679688 Z M 26.171875 13.679688 "/>
</clipPath>
</defs>
<g id="surface1">
<path style=" stroke:none;fill-rule:evenodd;fill:rgb(42.092896%,44.281006%,46.224976%);fill-opacity:1;" d="M 89.171875 20.386719 L 93.902344 20.386719 L 93.902344 38.21875 L 89.171875 38.21875 Z M 89.171875 13.679688 L 93.902344 13.679688 L 93.902344 17.921875 L 89.171875 17.921875 L 89.171875 13.679688 "/>
<path style=" stroke:none;fill-rule:evenodd;fill:rgb(42.092896%,44.281006%,46.224976%);fill-opacity:1;" d="M 101.097656 23.238281 L 101.199219 23.238281 C 102.277344 21.21875 103.496094 20.175781 105.578125 20.175781 C 106.101562 20.175781 106.414062 20.210938 106.691406 20.316406 L 106.691406 24.453125 L 106.589844 24.453125 C 103.496094 24.140625 101.269531 25.773438 101.269531 29.527344 L 101.269531 38.21875 L 96.542969 38.21875 L 96.542969 20.386719 L 101.097656 20.386719 L 101.097656 23.238281 "/>
<path style=" stroke:none;fill-rule:evenodd;fill:rgb(42.092896%,44.281006%,46.224976%);fill-opacity:1;" d="M 115.902344 20.386719 L 120.632812 20.386719 L 120.632812 38.21875 L 115.902344 38.21875 Z M 115.902344 13.679688 L 120.628906 13.679688 L 120.628906 17.921875 L 115.902344 17.921875 L 115.902344 13.679688 "/>
<path style=" stroke:none;fill-rule:evenodd;fill:rgb(42.092896%,44.281006%,46.224976%);fill-opacity:1;" d="M 127.894531 22.820312 L 127.996094 22.820312 C 129.214844 20.90625 130.847656 19.898438 133.28125 19.898438 C 136.96875 19.898438 139.433594 22.679688 139.433594 26.574219 L 139.433594 38.21875 L 134.707031 38.21875 L 134.707031 27.269531 C 134.707031 25.355469 133.59375 24 131.613281 24 C 129.527344 24 127.996094 25.667969 127.996094 28.101562 L 127.996094 38.21875 L 123.269531 38.21875 L 123.269531 20.386719 L 127.894531 20.386719 L 127.894531 22.820312 "/>
<path style=" stroke:none;fill-rule:evenodd;fill:rgb(42.092896%,44.281006%,46.224976%);fill-opacity:1;" d="M 146.105469 27.371094 L 154.03125 27.371094 C 153.894531 25.113281 152.398438 23.550781 150.242188 23.550781 C 147.738281 23.550781 146.523438 25.042969 146.105469 27.371094 Z M 141.378906 29.285156 C 141.378906 24 144.960938 19.898438 150.171875 19.898438 C 155.90625 19.898438 158.96875 24.277344 158.96875 30.640625 L 146.035156 30.640625 C 146.386719 33.386719 147.914062 35.089844 150.589844 35.089844 C 152.433594 35.089844 153.511719 34.253906 154.03125 32.898438 L 158.6875 32.898438 C 158.027344 36.0625 155.214844 38.738281 150.625 38.738281 C 144.71875 38.738281 141.378906 34.601562 141.378906 29.285156 "/>
<path style=" stroke:none;fill-rule:evenodd;fill:rgb(42.092896%,44.281006%,46.224976%);fill-opacity:1;" d="M 160.054688 32.445312 L 164.4375 32.445312 C 164.75 34.496094 166.207031 35.402344 168.328125 35.402344 C 170.414062 35.402344 171.597656 34.601562 171.597656 33.351562 C 171.597656 31.648438 169.335938 31.472656 166.902344 30.988281 C 163.707031 30.363281 160.578125 29.492188 160.578125 25.601562 C 160.578125 21.742188 163.773438 19.898438 167.84375 19.898438 C 172.535156 19.898438 175.140625 22.230469 175.488281 25.808594 L 171.214844 25.808594 C 171.003906 23.898438 169.789062 23.203125 167.773438 23.203125 C 165.929688 23.203125 164.714844 23.898438 164.714844 25.183594 C 164.714844 26.710938 167.078125 26.851562 169.613281 27.371094 C 172.605469 28 175.90625 28.832031 175.90625 33.003906 C 175.90625 36.582031 172.847656 38.738281 168.398438 38.738281 C 163.21875 38.738281 160.335938 36.234375 160.054688 32.445312 "/>
<path style=" stroke:none;fill-rule:evenodd;fill:rgb(42.092896%,44.281006%,46.224976%);fill-opacity:1;" d="M 71.398438 29.039062 L 75.050781 18.613281 L 78.804688 29.039062 Z M 78.019531 13.679688 L 72.519531 13.679688 L 62.570312 38.21875 L 68.203125 38.21875 L 70.042969 33.175781 L 80.195312 33.175781 L 82.070312 38.21875 L 87.734375 38.21875 L 78.019531 13.679688 "/>
<path style=" stroke:none;fill-rule:evenodd;fill:rgb(42.092896%,44.281006%,46.224976%);fill-opacity:1;" d="M 108.535156 13.679688 L 113.261719 13.679688 L 113.261719 38.21875 L 108.535156 38.21875 L 108.535156 13.679688 "/>
<g clip-path="url(#clip1)" clip-rule="nonzero">
<path style=" stroke:none;fill-rule:evenodd;fill:rgb(67.913818%,84.675598%,10.131836%);fill-opacity:1;" d="M 56.4375 28.40625 C 56.4375 43.996094 43.8125 56.617188 28.226562 56.617188 C 12.640625 56.617188 0 43.996094 0 28.40625 C 0 12.816406 12.640625 0.183594 28.226562 0.183594 C 43.8125 0.183594 56.4375 12.816406 56.4375 28.40625 "/>
</g>
<g clip-path="url(#clip2)" clip-rule="nonzero">
<g clip-path="url(#clip3)" clip-rule="evenodd">
<path style=" stroke:none;fill-rule:nonzero;fill:rgb(100%,100%,100%);fill-opacity:1;" d="M 6.773438 12.683594 L 48.574219 12.683594 L 48.574219 45.652344 L 6.773438 45.652344 L 6.773438 12.683594 "/>
</g>
</g>
</g>
</svg>

<svg xmlns="http://www.w3.org/2000/svg" width="176pt" height="75.653" viewBox="0 0 176 56.74"><defs><clipPath id="a"><path d="M0 0h57v56.738H0Zm0 0"/></clipPath><clipPath id="b"><path d="M7 13h41v32H7Zm0 0"/></clipPath><clipPath id="c"><path d="M46.934 13.68H33.129l-1.965 4.902h4.578c3.078 0 3.672-.062 4.446-.062-1.118 2.55-7.844 19.695-7.844 19.695h5.691s8.52-21.34 9.422-23.578c.25-.5.125-.957-.523-.957m-20.762 0c-4.445 0-7.328.246-9.418 1.02-3.508 1.366-5.93 4.23-5.93 7.991 0 3.137 1.461 5.407 5.684 8.016 4.508 2.734 5.406 3.637 5.406 5.281 0 1.801-1.766 3.856-6.309 3.856-1.582 0-3.972-.223-5.5-.594l-.726-.184c-.406 1.09-1.328 3.664-1.61 4.598l.723.211c1.371.441 4.63.781 6.961.781 7.766 0 12.399-4.691 12.399-9.601 0-3.02-1.372-5.313-6.004-8.203-2.32-1.426-3.504-2.356-4.223-3.07-.586-.75-.648-1.31-.648-1.895 0-.563.125-1.211.496-1.688.398-.586 1.136-.957 2.129-1.265 1.023-.34 2.918-.348 5.867-.348h2.75l1.96-4.906Zm0 0"/></clipPath></defs><path d="M89.172 20.387h4.73v17.832h-4.73Zm0-6.707h4.73v4.242h-4.73zM101.098 23.238h.101c1.078-2.02 2.297-3.062 4.38-3.062.523 0 .835.035 1.112.14v4.137h-.101c-3.094-.312-5.32 1.32-5.32 5.074v8.692h-4.727V20.387h4.555zM115.902 20.387h4.73v17.832h-4.73Zm0-6.707h4.727v4.242h-4.727zM127.895 22.82h.101c1.219-1.914 2.852-2.922 5.285-2.922 3.688 0 6.153 2.782 6.153 6.676V38.22h-4.727v-10.95c0-1.914-1.113-3.269-3.094-3.269-2.086 0-3.617 1.668-3.617 4.102v10.117h-4.726V20.387h4.625zM146.105 27.371h7.926c-.136-2.258-1.633-3.82-3.789-3.82-2.504 0-3.719 1.492-4.137 3.82m-4.726 1.914c0-5.285 3.582-9.387 8.793-9.387 5.734 0 8.797 4.38 8.797 10.743h-12.934c.352 2.746 1.88 4.449 4.555 4.449 1.844 0 2.922-.836 3.441-2.192h4.656c-.66 3.164-3.472 5.84-8.062 5.84-5.906 0-9.246-4.136-9.246-9.453M160.055 32.445h4.382c.313 2.051 1.77 2.957 3.891 2.957 2.086 0 3.27-.8 3.27-2.05 0-1.704-2.262-1.88-4.696-2.364-3.195-.625-6.324-1.496-6.324-5.386 0-3.86 3.195-5.704 7.266-5.704 4.691 0 7.297 2.332 7.644 5.91h-4.273c-.211-1.91-1.426-2.605-3.442-2.605-1.843 0-3.058.695-3.058 1.98 0 1.528 2.363 1.669 4.898 2.188 2.992.629 6.293 1.461 6.293 5.633 0 3.578-3.058 5.734-7.508 5.734-5.18 0-8.062-2.504-8.343-6.293M71.398 29.04l3.653-10.427 3.754 10.426Zm6.622-15.36h-5.5l-9.95 24.539h5.633l1.84-5.043h10.152l1.875 5.043h5.664zM108.535 13.68h4.727v24.539h-4.727z" style="stroke:none;fill-rule:evenodd;fill:#6b7176;fill-opacity:1"/><g clip-path="url(#a)"><path d="M56.438 28.406c0 15.59-12.626 28.211-28.211 28.211C12.64 56.617 0 43.997 0 28.407S12.64.183 28.227.183s28.21 12.632 28.21 28.222" style="stroke:none;fill-rule:evenodd;fill:#add81a;fill-opacity:1"/></g><g clip-path="url(#b)"><g clip-path="url(#c)" clip-rule="evenodd"><path d="M6.773 12.684h41.801v32.968h-41.8z" style="stroke:none;fill-rule:nonzero;fill:#fff;fill-opacity:1"/></g></g></svg>
